X: 1
T: String Quartet in D major opus 1 no 3 mvt 5
C: Franz Joseph Haydn
%%abc-version 2.0
%%abcx-abcm2ps-target-version 5.9.1 (29 Sep 2008)
%%abc-creator hum2abc beta
%%abcx-conversion-date 2021/02/14 14:38:29
%%abc-copyright Copyright (c) 1994, 2000 Center for Computer Assisted Research in the Humanities
%%abc-edited-by Frances Bennion
%%abcx-initial-encoding-date 1997/04/15
%%gracespace 0 6 6
%%humdrum-veritas 1021357854
%%humdrum-veritas-data 3061215198
%%linebreak <none>
%%barnumbers 0
L: 1/8
M: 3/8
N: Derived from op01n3-05.krn
Q: "Presto"
%%staves [1 2 3 4]
V: 1
V: 2
V: 3 clef=alto
V: 4 clef=bass
K: D
[V:1][d2F2] f//e//f//g// [I:setbarnb2] |
[V:2][d2F2] z |
[V:3]D2 z |
[V:4]D,2 z |
[V:1]a f d |
[V:2]z3 |
[V:3]z3 |
[V:4]z3 |
[V:1]A F D |
[V:2]A F D |
[V:3]A F D |
[V:4]A, F, D, |
[V:1]B G E |
[V:2]B G E |
[V:3]B G E |
[V:4]B, G, E, |
[V:1]A, g g |
[V:2]A, c c |
[V:3]A, E E |
[V:4]A,2 A, |
[V:1]f2 D//E//F//G// |
[V:2]d2 z |
[V:3]D2 z |
[V:4]D D, z |
[V:1]A F D |
[V:2]A F D |
[V:3]A F D |
[V:4]A, F, D, |
[V:1]B G E |
[V:2]B G E |
[V:3]B G E |
[V:4]B, G, E, |
[V:1]g f/e/ d/c/ |
[V:2]C A/G/ F/E/ |
[V:3]A2 A, |
[V:4]A,2 A,, |
[V:1]d2 f |
[V:2]D2 z |
[V:3]D D, z |
[V:4]D, D,, z |
[V:1]D2 C |
[V:2]z3 |
[V:3]z3 |
[V:4]z3 |
[V:1]B,2 d |
[V:2]z2 f |
[V:3]z3 |
[V:4]z3 |
[V:1]B,2 A, |
[V:2]D2 C |
[V:3]z3 |
[V:4]z3 |
[V:1]^G, z b |
[V:2]B, z2 |
[V:3]z3 |
[V:4]z3 |
[V:1]E2 d |
[V:2]E2 B |
[V:3]E2 E |
[V:4]^G, E, G, |
[V:1]c2 z |
[V:2]A2 A//B//c//d// |
[V:3]E2 z |
[V:4]A, A,, z |
[V:1]z3 |
[V:2]e c A |
[V:3]z3 |
[V:4]z3 |
[V:1]d' c' z |
[V:2]^G A A//B//c//d// |
[V:3]B A z |
[V:4]E, A, z |
[V:1]z3 |
[V:2]e c A |
[V:3]z3 |
[V:4]z3 |
[V:1]f/e/ A/B//c// d//e//f//^g// |
[V:2]d c z |
[V:3]A A, z |
[V:4]D, A, z |
[V:1]a e c |
[V:2]z3 |
[V:3]z3 |
[V:4]z3 |
[V:1]e c A |
[V:2]e c A |
[V:3]e c A |
[V:4]E C A, |
[V:1]E c B |
[V:2]E A ^G |
[V:3]E2 E |
[V:4]E,2 E, |
[V:1]A2 a |
[V:2]A2 z |
[V:3]A2 z |
[V:4]A,,2 z |
[V:1]^d3 |
[V:2]B, A A |
[V:3]B, F F |
[V:4]B,3 |
[V:1]e2 g |
[V:2]G2 z |
[V:3]E2 z |
[V:4]E,2 z |
[V:1]c3 |
[V:2]A, G G |
[V:3]A, E E |
[V:4]A,3 |
[V:1]d2 A |
[V:2]F2 D |
[V:3]D2 F |
[V:4]D,2 F, |
[V:1]B G E |
[V:2]D E E |
[V:3]G3 |
[V:4]G,3 |
[V:1]c A F |
[V:2]E F F |
[V:3]A3 |
[V:4]A,3 |
[V:1]d B G |
[V:2]F G G |
[V:3]B3 |
[V:4]B,3 |
[V:1]e c G |
[V:2]G A E |
[V:3]c3 |
[V:4]C3 |
[V:1]F d/c/ d/e/ |
[V:2]F2 z |
[V:3]d2 z |
[V:4]D2 z |
[V:1]f a f |
[V:2][f2A2D2] z |
[V:3]D2 z |
[V:4]D,2 z |
[V:1]e b/g/ f/e/ |
[V:2]B2 A/^G/ |
[V:3]G2 ^G |
[V:4]G,2 ^G, |
[V:1]c2 z |
[V:2]E2 z |
[V:3]A E A, |
[V:4]A, E, A,, |
[V:1][F2d2] f//e//f//g// |
[V:2][F2d2] z |
[V:3]D2 z |
[V:4]D,2 z |
[V:1]a f d |
[V:2]z3 |
[V:3]z3 |
[V:4]z3 |
[V:1]A F D |
[V:2]A F D |
[V:3]A F D |
[V:4]A, F, D, |
[V:1]B G E |
[V:2]B G E |
[V:3]B G E |
[V:4]B, G, E, |
[V:1]A, g g |
[V:2]A, c c |
[V:3]A, E E |
[V:4]A,2 A, |
[V:1]f2 D//E//F//G// |
[V:2]d2 z |
[V:3]D2 z |
[V:4]D D, z |
[V:1]A F D |
[V:2]A F D |
[V:3]A F D |
[V:4]A, F, D, |
[V:1]B G E |
[V:2]B G E |
[V:3]B G E |
[V:4]B, G, E, |
[V:1]g f/e/ d/c/ |
[V:2]C A/G/ F/E/ |
[V:3]A2 A, |
[V:4]A,2 A,, |
[V:1]d2 a |
[V:2]D2 f |
[V:3]D D, D |
[V:4]D, D,, D, |
[V:1]b g/a/ b/c'/ |
[V:2]g3 |
[V:3]G2 E |
[V:4]G,2 E, |
[V:1]d'2 F |
[V:2]f2 F |
[V:3]D2 F |
[V:4]D,2 F, |
[V:1]G E A |
[V:2]G E A |
[V:3]G E A |
[V:4]G, E, A, |
[V:1]D2 z |
[V:2]D2 z |
[V:3]D2 z |
[V:4]D,2 z |
[V:1]f3- |
[V:2][B2D2] B |
[V:3]B,2 D |
[V:4]B,,2 z |
[V:1]f3- |
[V:2]^A z c |
[V:3]C z E |
[V:4]z3 |
[V:1]f3- |
[V:2]B z d |
[V:3]D z2 |
[V:4]z2 B, |
[V:1]f3- |
[V:2]c z e |
[V:3]z3 |
[V:4]^A, z C |
[V:1]f2 b |
[V:2]d z2 |
[V:3]z3 |
[V:4]B, z2 |
[V:1]g f e |
[V:2]z3 |
[V:3]z3 |
[V:4]z3 |
[V:1]d d c |
[V:2]z3 |
[V:3]z3 |
[V:4]z3 |
[V:1]B3- |
[V:2]z2 G |
[V:3]z3 |
[V:4]z2 E, |
[V:1]B3- |
[V:2]F z A |
[V:3]z3 |
[V:4]^D, z F, |
[V:1]B3- |
[V:2]G z B |
[V:3]z2 G |
[V:4]E, z2 |
[V:1]B3- |
[V:2]A A G |
[V:3]F F E |
[V:4]z3 |
[V:1]B2 b |
[V:2]F2 z |
[V:3]^D2 z |
[V:4]z3 |
[V:1]B B A |
[V:2]^D E F |
[V:3]B,3- |
[V:4]B,, C, ^D, |
[V:1]G E a |
[V:2]G E z |
[V:3]B,3 |
[V:4]E, G, z |
[V:1]A A G |
[V:2]C D E |
[V:3]A,3- |
[V:4]A,, B,, C, |
[V:1]F D d |
[V:2]F D z |
[V:3]A,2 z |
[V:4]D, F, z |
[V:1]f2 d |
[V:2]d3- |
[V:3]A3 |
[V:4]D3 |
[V:1]g2 b |
[V:2]d3- |
[V:3]B2 G |
[V:4]B,2 G, |
[V:1]a F E |
[V:2]d D C |
[V:3]F A A, |
[V:4]F, A, A,, |
[V:1]D z f |
[V:2]D2 z |
[V:3]D D, z |
[V:4]D, D,, z |
[V:1]b z ^d |
[V:2]^d3 |
[V:3]F3 |
[V:4]A,3 |
[V:1]e z b |
[V:2]e3 |
[V:3]G3 |
[V:4]G,3 |
[V:1]a z c |
[V:2]c3 |
[V:3]E3 |
[V:4]G,3 |
[V:1]d z f |
[V:2]d2 d |
[V:3]F3- |
[V:4]F,3 |
[V:1]e z d |
[V:2]c z B |
[V:3]F3- |
[V:4]F,3 |
[V:1]c z F |
[V:2]^A z F |
[V:3]F2 F |
[V:4]F,2 F, |
[V:1]D C B, |
[V:2]D C B, |
[V:3]D C B, |
[V:4]D, C, B,, |
[V:1]F2 f |
[V:2]F2 z |
[V:3]F2 z |
[V:4]F,2 z |
[V:1]e3- |
[V:2]z2 B |
[V:3]z3 |
[V:4]z2 G, |
[V:1]e3- |
[V:2]^A z g |
[V:3]z2 B |
[V:4]F, z2 |
[V:1]e3- |
[V:2]f z B |
[V:3]^A z2 |
[V:4]z2 G, |
[V:1]e3- |
[V:2]^A z g |
[V:3]z2 B |
[V:4]F, z2 |
[V:1]e c' e |
[V:2]f z c |
[V:3]^A z A |
[V:4]z2 F, |
[V:1]d B D |
[V:2]d B D |
[V:3]B d D |
[V:4]B, D D, |
[V:1]E C F |
[V:2]E C F |
[V:3]E C F |
[V:4]E, C, F, |
[V:1]G2 b |
[V:2]G2 z |
[V:3]G2 z |
[V:4]G,2 z |
[V:1]B B A |
[V:2]B, C ^D |
[V:3]z3 |
[V:4]z3 |
[V:1]G E g |
[V:2]E G B |
[V:3]z2 E |
[V:4]z2 E, |
[V:1]f B ^A |
[V:2]B D C |
[V:3]D F F, |
[V:4]D, F, F,, |
[V:1]B2 b |
[V:2]B,2 z |
[V:3]B,2 z |
[V:4]B,,2 z |
[V:1]B B A |
[V:2]B, C ^D |
[V:3]z3 |
[V:4]z3 |
[V:1]G E g |
[V:2]E G B |
[V:3]z2 E |
[V:4]z2 E, |
[V:1]f B ^A |
[V:2]B D C |
[V:3]D/E/ F F, |
[V:4]D,/E,/ F, F,, |
[V:1]B2 B |
[V:2]B,2 B |
[V:3]B,2 B |
[V:4]B,,2 B, |
[V:1]d B F |
[V:2]d B F |
[V:3]d B F |
[V:4]D B, F, |
[V:1]G2 e |
[V:2]G2 z |
[V:3]G3 |
[V:4]G,3 |
[V:1]A, G G |
[V:2]A, E E |
[V:3]A B c |
[V:4]A, B, C |
[V:1]F2 A |
[V:2]D2 z |
[V:3]d D z |
[V:4]D D, z |
[V:1][d2F2] f//e//f//g// |
[V:2][d2F2] z |
[V:3]D2 z |
[V:4]D,2 z |
[V:1]a f d |
[V:2]z3 |
[V:3]z3 |
[V:4]z3 |
[V:1]A F D |
[V:2]A F D |
[V:3]A F D |
[V:4]A, F, D, |
[V:1]B G E |
[V:2]B G E |
[V:3]B G E |
[V:4]B, G, E, |
[V:1]A, g g |
[V:2]A, c c |
[V:3]A, E E |
[V:4]A,2 A, |
[V:1]f2 D//E//F//G// |
[V:2]d2 z |
[V:3]D2 z |
[V:4]D D, z |
[V:1]A F D |
[V:2]A F D |
[V:3]A F D |
[V:4]A, F, D, |
[V:1]B G E |
[V:2]B G E |
[V:3]B G E |
[V:4]B, G, E, |
[V:1]g f/e/ d/c/ |
[V:2]C A/G/ F/E/ |
[V:3]A2 A, |
[V:4]A,2 A,, |
[V:1]d2 f |
[V:2]D2 z |
[V:3]D D, z |
[V:4]D, D,, z |
[V:1]D2 C |
[V:2]z3 |
[V:3]z3 |
[V:4]z3 |
[V:1]B,2 d |
[V:2]z2 f |
[V:3]z3 |
[V:4]z3 |
[V:1]B,2 A, |
[V:2]D2 C |
[V:3]z3 |
[V:4]z3 |
[V:1]^G,2 b |
[V:2]B, z2 |
[V:3]z3 |
[V:4]z3 |
[V:1]E2 d |
[V:2]E2 B |
[V:3]E2 E |
[V:4]^G, E, G, |
[V:1]c2 z |
[V:2]A2 A//B//c//d// |
[V:3]E2 z |
[V:4]A, A,, z |
[V:1]z3 |
[V:2]e c A |
[V:3]z3 |
[V:4]z3 |
[V:1]d' c' z |
[V:2]^G A A//B//c//d// |
[V:3]B A z |
[V:4]E, A, z |
[V:1]z3 |
[V:2]e c A |
[V:3]z3 |
[V:4]z3 |
[V:1]f/e/ A/B//c// d//e//f//^g// |
[V:2]d c z |
[V:3]A A, z |
[V:4]D, A, z |
[V:1]a e c |
[V:2]z3 |
[V:3]z3 |
[V:4]z3 |
[V:1]e c A |
[V:2]e c A |
[V:3]e c A |
[V:4]E C A, |
[V:1]E c B |
[V:2]E A ^G |
[V:3]E2 E |
[V:4]E,2 E, |
[V:1]A2 a |
[V:2]A2 z |
[V:3]A2 z |
[V:4]A,,2 z |
[V:1]^d3 |
[V:2]B, A A |
[V:3]B, F F |
[V:4]B,2 z |
[V:1]e2 g |
[V:2]G2 z |
[V:3]E2 z |
[V:4]E,2 z |
[V:1]c3 |
[V:2]A, G G |
[V:3]A, E E |
[V:4]A,3 |
[V:1]d2 A |
[V:2]F2 D |
[V:3]D2 F |
[V:4]D,2 F, |
[V:1]B G E |
[V:2]D E E |
[V:3]G3 |
[V:4]G,3 |
[V:1]c A F |
[V:2]E F F |
[V:3]A3 |
[V:4]A,3 |
[V:1]d B G |
[V:2]F G G |
[V:3]B3 |
[V:4]B,3 |
[V:1]e c G |
[V:2]G A E |
[V:3]c3 |
[V:4]C3 |
[V:1]F d/c/ d/e/ |
[V:2]F2 z |
[V:3]d2 z |
[V:4]D2 z |
[V:1]f a f |
[V:2][f2D2A2] z |
[V:3]D2 z |
[V:4]D,2 z |
[V:1]e b/g/ f/e/ |
[V:2]B A ^G |
[V:3]G2 ^G |
[V:4]G,2 ^G, |
[V:1]c2 z |
[V:2]E2 z |
[V:3]A E A, |
[V:4]A, E, A,, |
[V:1][d2F2] f//e//f//g// |
[V:2][d2D2] z |
[V:3]D2 z |
[V:4]D,2 z |
[V:1]a f d |
[V:2]z3 |
[V:3]z3 |
[V:4]z3 |
[V:1]A F D |
[V:2]A F D |
[V:3]A F D |
[V:4]A, F, D, |
[V:1]B G E |
[V:2]B G E |
[V:3]B G E |
[V:4]B, G, E, |
[V:1]A, g g |
[V:2]A, c c |
[V:3]A, E E |
[V:4]A,2 A, |
[V:1]f2 D//E//F//G// |
[V:2]d2 z |
[V:3]D2 z |
[V:4]D D, z |
[V:1]A F D |
[V:2]A F D |
[V:3]A F D |
[V:4]A, F, D, |
[V:1]B G E |
[V:2]B G E |
[V:3]B G E |
[V:4]B, G, E, |
[V:1]g f/e/ d/c/ |
[V:2]C A/G/ F/E/ |
[V:3]A2 A, |
[V:4]A,2 A,, |
[V:1]d2 a |
[V:2]D2 f |
[V:3]D D, D |
[V:4]D, D,, D, |
[V:1]b g/a/ b/c'/ |
[V:2]g3 |
[V:3]G2 E |
[V:4]G,2 E, |
[V:1]d'2 F |
[V:2]f2 F |
[V:3]D2 F |
[V:4]D,2 F, |
[V:1]G E A |
[V:2]G E A |
[V:3]G E A |
[V:4]G, E, A, |
[V:1]D2 z |]
[V:2]D2 z |]
[V:3]D2 z |]
[V:4]D,2 z |]

